X:1
T:Title
%%score { ( 1 3 ) | 2 }
L:1/8
Q:1/4=100
M:4/4
K:C
V:1 treble nm="Grand Piano"
V:3 treble 
V:2 bass 
V:1
 [Ec]2 [Ec]>[Ec] [Fc]2 [FA]2 | [EG]4 E4 | E2 E>[DF] [EG]2 A2 | z4 G2 z2 | E2 E>E [^G,DE]2 [G,DE]2 | %5
w: Adam~Geibel * * * *|||||
 [A,CE]4 [EAc]4 | [DGB]2 [DGB]>[DGB] [D^FB]2 [CFA]2 | [B,G]6 z2 | [Ge]3 [Ge] [Gc]2 [FA]2 | %9
w: ||||
 [EG]4 E4 | E2 E>[DF] [EG]2 [Gc]2 | [Gd]6 z2 | [Ge]3 [Ge] [Gc]2 [Gc]2 | c4 A4 | %14
w: |||||
 G2 G>G [B,DG]2 [DFG]2 | [CEG]6 z2 |] %16
w: ||
V:2
 [C,G,]2 [C,G,]>[C,G,] [C,A,]2 [C,B,]2 | [C,C]4 [C,G,C]4 | [C,G,C]2 [C,G,C]>[C,G,] [C,C]2 [F,CF]2 | %3
 [G,B,]6 z2 | [C,G,C]2 [C,G,C]>[C,G,C] B,,2 B,,2 | A,,4 A,,4 | D,2 D,>D, D,2 D,2 | G,6 z2 | %8
 [C,C]3 [C,C] [E,C]2 [F,C]2 | [C,C]4 [C,G,C]4 | [C,G,C]2 [C,G,C]>[C,G,] [C,C]2 [E,C]2 | %11
 [G,B,]6 z2 | [C,C]3 [C,C] [E,C]2 [E,_B,]2 | [F,A,F]4 [F,CF]4 | [G,CE]2 [G,CE]>[G,CE] G,,2 G,,2 | %15
 C,6 z2 |] %16
V:3
 x8 | x8 | x8 | D6 z2 | x8 | x8 | x8 | x8 | x8 | x8 | x8 | x8 | x8 | x8 | x8 | x8 |] %16

